X: 35319
T: Rosehall Strap, The
R: reel
M: 4/4
K: Bminor
B2 FB dBBA|FBAF EDE=F|FB B/B/B dBAF|AFED EFD_B,|
B,BAB dBAB|FBAF A2 B/c/d|e2 ce BcAf|1 ecfe c2 BA:|2 ecfe c2 A/B/c||
Ad d/d/d Adeg|fddA BAGB|A/A/A ed cdBd|Afed cdec|
d2 cd A3 g|fddA BAGB|A/A/A ed cdec|d4 g3 g|
fd d e2 d cB|A2 ed cdBc|Afed cdec|
d2 cd A3 g|fddA BAGB|A/A/A edcd eA||

